!!!!SEGMENT: pl-gd--ee-1638--003-027_marenzio-luca--madrigali-a-quatro-voci-vienne-montan.krn
!!!cenid: 15xx:1001
!!!COM: Marenzio, Luca
!!!COM-rismID:
!!!CDT: ~1553-1599/08/22
!!!CNT: Italian
!!!GTL: Madrigali a quatro voci
!!!OTL: Vienne Montan
!!!OMV: 027
!!!PDT: 1587
!!!AGN:
!!!SMS-siglum: PL-GD
!!!SMS-shelfmark: Ee 1638
!!!SMS-shelfwork: 003-027 G
!!!SMS-variant:
!!!SMS-altvar:
!!!NIFC-rismSourceID: 990039322
!!!NIFC-islandoraID: pl-gd:57883
!!!URL-pdf-islandora: https://repozytorium.nifc.pl/islandora/object/pl-gd%3A57883/datastream/PDF/view
!!!URL-scan: https://polish.musicsources.pl/pl/lokalizacje/galeria/klocki-introligatorskie/655 @EN{Scan on Polish Music Herritage in Open Access Website} @PL{Skany w portalu Dziedzictwo Muzyki Polskiej w otwartym dostępie}
!!!ONB-nifc: UWAGA: zbiór na stronach: Canto: s. 637-653, Alto: s. do 486-501, Tenore: s. do 334-349, Bassus: s. do 182-197. Uwaga: utwory podzielone wg tytułów w spisach treści dostępnych na końcu każdej księgi głosowej.
!!!AIN: 1 alto 1 bass 1 soprn 1 tenor
!!!key:
**kern	**text	**kern	**text	**kern	**text	**kern	**text
*part4	*part4	*part3	*part3	*part2	*part2	*part1	*part1
*staff4	*staff4	*staff3	*staff3	*staff2	*staff2	*staff1	*staff1
*I"BASSO	*	*I"TENORE	*	*I"ALTO	*	*I"CANTO	*
*I'B	*	*I'T	*	*I'A	*	*I'S	*
*ICvox	*	*ICvox	*	*ICvox	*	*ICvox	*
*Ibass	*	*Itenor	*	*Ialto	*	*Isoprn	*
*clefF4	*	*clefC4	*	*clefC3	*	*clefC1	*
*k[b-]	*	*k[b-]	*	*k[b-]	*	*k[b-]	*
*C:	*	*C:	*	*C:	*	*C:	*
*M2/1	*	*M2/1	*	*M2/1	*	*M2/1	*
*met(C)	*	*met(C)	*	*met(C)	*	*met(C)	*
=1-	=1-	=1-	=1-	=1-	=1-	=1-	=1-
!LO:TX:a:t=Prima parte.	!	!LO:TX:a:t=Prima parte.	!	!LO:TX:a:t=Prima parte.	!	!LO:TX:a:t=Prima parte.	!
0r	.	0r	.	1f	VIen-	1cc	VIen-
.	.	.	.	2f\	-ne	2a\	-ne
.	.	.	.	2e\	Mõ(n)-	2g/	Mõ(n)-
=2-	=2-	=2-	=2-	=2-	=2-	=2-	=2-
1F	VIen-	1c	VIen-	1f	-tan	1f	-tan
2F\	-ne	2A/	-ne	1r	.	1r	.
2E\	Mon-	2G/	Mõ(n)-	.	.	.	.
=3-	=3-	=3-	=3-	=3-	=3-	=3-	=3-
1F	-tan	1F	-tan	1r	.	1r	.
2F\	Vien-	2A/	Vie(n)-	2f\	Vie(n)-	2cc\	Vien-
4F\	-ne	4c\	-ne	4f\	-ne	4a\	-ne
4BB-/	Mon-	4B-\	Mon-	4f\	Mõ(n)-	4dd\	Mon-
=4-	=4-	=4-	=4-	=4-	=4-	=4-	=4-
2F\	-tan	2A/	-tan	2f\	-tan	2cc\	-tan
4.F\	men-	4.A/	men-	4.a\	men-	4.cc\	men-
8G\	-tre	8B-\	-tre	8g\	-tre	8b-\	-tre
4A\	le	4c\	le	4f\	le	4a\	le
2B-\	noſ-	2d\	noſ-	2f\	noſ-	2dd\	noſ-
!LO:SIC:v:t=custos G	!	!	!	!	!	!LO:SIC:v:t=custos b	!
4F\	-tre	4f\	-tre	4a\	-tre	4cc\	-tre
!LO:LB:g=original	!	!	!	!	!	!LO:LB:g=original	!
=5-	=5-	=5-	=5-	=5-	=5-	=5-	=5-
!	!	!	!	!	!	!LO:N:acc=#	!
4.G\	tor-	4.d\	tor-	4.g\	tor-	4.bn\	tor-
8G\	-mo-	8d\	-mo-	8g\	-mo-	8b\	-mo-
!	!	!LO:SIC:v:t=custos A	!	!LO:SIC:v:t=custos c	!	!	!
2C/	-ra	2e\	-ra	2g\	-ra	2cc\	-ra
!	!	!LO:LB:g=original	!	!LO:LB:g=original	!	!	!
4F\	Ru-	4A/	Ru-	4c/	Ru-	4a\	Ru-
4G\	.	4G/	.	4B-/	.	4b-yX\	.
4A\	.	4F/	.	4A/	.	4cc\	.
4G\	.	4G/	.	4B-/	.	4b-\	.
=6-	=6-	=6-	=6-	=6-	=6-	=6-	=6-
4.F\	.	4.A/	.	4.c/	.	4.a\	.
8F\	-mi-	8c\	-mi-	8A/	-mi-	8a\	-mi-
2F\	-nan	4d\	-nan	2f\	-nan	2a\	-nan
.	.	2c\	l`her-	.	.	.	.
2D/	l`her-	.	.	2f\	l`her-	2dd\	l`her-
!	!	!LO:N:acc=#	!	!	!	!	!
.	.	4Bn\	.	.	.	.	.
2C/	-be	2c\	-be	2e\	-be	2g/	-be e
=7-	=7-	=7-	=7-	=7-	=7-	=7-	=7-
2r	.	2r	.	4r	.	4.cc\	i cac-
.	.	.	.	4c/	ei	.	.
.	.	.	.	.	.	8b-\	-cia-
4r	.	4r	.	4.f\	cac-	2a\	-tor
4D/	s`im-	4A/	s`im-	.	.	.	.
.	.	.	.	8e\	-cia-	.	.
4.G\	-boſ-	4.B-y\	-boſ-	2d\	-tor	4r	.
.	.	.	.	.	.	4g/	e i
8G\	-ca-	8B-\	-ca-	.	.	.	.
2F\	-no	2A/	-no	4r	.	4.cc\	cac-
.	.	.	.	4c/	s`im-	.	.
.	.	.	.	.	.	8b-\	-cia-
=8-	=8-	=8-	=8-	=8-	=8-	=8-	=8-
4r	.	4r	.	4.f\	-boſ-	2a\	-tor
4D/	s`im-	4A/	s`im-	.	.	.	.
.	.	.	.	8e\	-ca-	.	.
!	!	!	!	!	!	!LO:SIC:v:t=custos a	!
4.G\	-boſ-	4.B-\	-boſ-	2d\	-no	2r	.
8G\	-ca-	8B-\	-ca-	.	.	.	.
2F\	-no	2c\	-no	4r	.	4r	.
.	.	.	.	4A/	s`im-	4a\	s`im-
!LO:SIC:v:t=custos C	!	!LO:SIC:v:t=custos c	!	!	!	!	!
2r	.	2r	.	4.d\	-boſ-	4.f/	-boſ-
!	!	!	!	!LO:SIC:v:t=custos c	!	!	!
.	.	.	.	8d\	-ca-	8f/	-ca-
!LO:LB:g=original	!	!LO:LB:g=original	!	!LO:LB:g=original	!	!	!
=9-	=9-	=9-	=9-	=9-	=9-	=9-	=9-
4r	.	4r	.	2c/	-no	2g/	-no
4C/	Moſ-	4c\	Moſ-	.	.	.	.
4D/	-tran-	4B-\	-tran-	2r	.	2r	.
4E\	-do a	4G/	-do a	.	.	.	.
4.F\	i ca-	4.A/	i ca-	1r	.	1r	.
8E\	-ni	8G/	-ni	.	.	.	.
4F\	le	4A/	le	.	.	.	.
4G\	la-	4B-\	la-	.	.	.	.
=10-	=10-	=10-	=10-	=10-	=10-	=10-	=10-
4F\	-te-	4A/	-te-	1r	.	1r	.
4E\	-bre e	4c\	-bre e	.	.	.	.
!	!	!LO:N:acc=#	!	!	!	!	!
4.D/	l`or-	4.Bn\	l`or-	.	.	.	.
8D/	-mo-	8B\	-mo-	.	.	.	.
2C/	-ra	2c\	-ra	4r	.	4r	.
.	.	.	.	4g\	Moſ-	4g/	Moſ-
2r	.	2r	.	4f\	-tran-	4a\	-tran-
!	!	!	!	!	!	!LO:N:acc=#	!
.	.	.	.	4d\	-do a	4bn\	-do a
=11-	=11-	=11-	=11-	=11-	=11-	=11-	=11-
1r	.	1r	.	4.e\	i ca-	4.cc\	i ca-
!	!	!	!	!	!	!LO:N:acc=#	!
.	.	.	.	8d\	-ni	8bn\	-ni
.	.	.	.	4e\	le	4cc\	le
.	.	.	.	4f\	la-	4dd\	la-
2r	.	2r	.	4e\	-te-	4cc\	-te-
.	.	.	.	4g\	-bre e	4b\	-bre e
4r	.	4r	.	4.f#X\	l`or-	4.a\	l`or-
4D/	Can-	4A/	Can-	.	.	.	.
.	.	.	.	8f#\	-mo-	8a\	-mo-
=12-	=12-	=12-	=12-	=12-	=12-	=12-	=12-
8G\	-ta-	8B-y\	-ta-	2g\	-ra	2g/	-ra
8F\	.	8A\	.	.	.	.	.
8G\	.	8B-\	.	.	.	.	.
8A\	.	8c\	.	.	.	.	.
!LO:SIC:v:t=custos F	!	!LO:SIC:v:t=custos c	!	!	!	!	!
2B-\	.	2d\	.	4r	.	4r	.
!	!	!	!	!	!	!LO:SIC:v:t=custos a	!
.	.	.	.	4d\	Can-	4f/	Can-
!LO:LB:g=original	!	!LO:LB:g=original	!	!	!	!LO:LB:g=original	!
2F\	-te	2c\	-te	8fny\	-ta-	8a\	-ta-
.	.	.	.	8e\	.	8g\	.
.	.	.	.	8f\	.	8a\	.
.	.	.	.	8g\	.	8b-y\	.
!	!	!	!	!LO:SIC:v:t=custos d	!	!	!
4r	.	4r	.	2a\	.	2cc\	.
4F\	Can-	4A/	Can-	.	.	.	.
!	!	!	!	!LO:LB:g=original	!	!	!
=13-	=13-	=13-	=13-	=13-	=13-	=13-	=13-
8G\	-ta-	8B-\	-ta-	2d\	-te	2b-\	-te
8F\	.	8A\	.	.	.	.	.
8G\	.	8B-\	.	.	.	.	.
8A\	.	8c\	.	.	.	.	.
2B-\	.	2d\	.	4r	.	4r	.
.	.	.	.	4d\	Can-	4f/	Can-
0F	-te	0c	-te	8f\	-ta-	8a\	-ta-
.	.	.	.	8e\	.	8g\	.
.	.	.	.	8f\	.	8a\	.
.	.	.	.	8g\	.	8b-\	.
.	.	.	.	2a\	.	2cc\	.
=14-	=14-	=14-	=14-	=14-	=14-	=14-	=14-
.	.	.	.	1f	-te	1a	-te
=15-	=15-	=15-	=15-	=15-	=15-	=15-	=15-
*M3/2	*	*M3/2	*	*M3/2	*	*M3/2	*
*met(3)	*	*met(3)	*	*met(3)	*	*met(3)	*
2BB-/	Can-	2B-\	Can-	2f\	Can-	2dd\	Can-
2E-X\	-ta-	2B-\	-ta-	2g\	-ta-	2ee-X\	-ta-
2BB-/	-te ac-	2B-\	-te ac-	2f\	-te ac-	2dd\	-te ac-
=16-	=16-	=16-	=16-	=16-	=16-	=16-	=16-
2.F\	-ciò 	2.A/	-ciò 	2.f\	-ciò 	2.cc\	-ciò
4G\	che i	4G/	che i	4d\	che i	4b-\	che i
2.F\	mon-	2.A/	mon-	2.f\	mon-	2.cc\	mon-
=17-	=17-	=17-	=17-	=17-	=17-	=17-	=17-
4F\	-ti ho-	4A/	-ti ho-	4c/	-ti ho-	4a\	-ti ho-
2E-X\	-mai-	2G/	-mai-	2e-X\	-mai-	2b-\	-mai-
!	!	!	!	!	!	!LO:SIC:v:t=custos f	!
2C/	-co	2A/	-co	2e-\	-co	2cc\	-co
!	!	!	!	!	!	!LO:LB:g=original	!
=18-	=18-	=18-	=18-	=18-	=18-	=18-	=18-
*M2/1	*	*M2/1	*	*M2/1	*	*M2/1	*
*met(C)	*	*met(C)	*	*met(C)	*	*met(C)	*
4.BB-/	noſ-	4.B-\	noſ-	4.d\	noſ-	4.f/	noſ-
8BB-/	-ca-	8B-\	-ca-	8d\	-ca-	8f/	-ca-
!LO:SIC:v:t=custos F	!	!LO:SIC:v:t=custos c	!	!LO:SIC:v:t=custos f	!	!	!
2BB-/	-no	2B-\	-no	2d\	-no	2f/	-no
!LO:LB:g=original	!	!LO:LB:g=original	!	!LO:LB:g=original	!	!	!
4F\	Quan-	4c\	Quã(n)-	4f\	Quã(n)-	4a\	Quan-
4D/	-to`l	4d\	-to`l	4f#X\	-to`l	4a\	-to`l
!	!	!	!	!	!	!LO:N:acc=#	!
2G\	ſe-	2d\	ſe-	2g\	ſe-	2bn\	ſe-
=19-	=19-	=19-	=19-	=19-	=19-	=19-	=19-
!	!	!	!	!	!	!	!
4G\	-col	4d\	-col	4g\	-col	4bny\	-col
4C/	per-	4e\	per-	4g\	per-	4cc\	per-
4.F\	-du-	4.c\	-du-	4.fny\	-du-	4.a\	-du-
8Eny\	-to 	8c\	-to 	8g\	-to 	8g/	-to
4F\	in	4c\	in	4f\	in	4a\	in
4G\	uoi	4B-\	uoi	4d\	uoi	4g/	uoi
4.D/	ri-	4.A/	ri-	4.d\	ri-	4.f#X/	ri-
8D/	-noua-	8A/	-noua-	8d\	-noua-	8f#/	-noua-
=20-	=20-	=20-	=20-	=20-	=20-	=20-	=20-
1GG	-ſi	1G	-ſi	2d\	-ſi	2g/	-ſi
.	.	.	.	4r	.	4r	.
.	.	.	.	4d\	Can-	4g/	Can-
2r	.	2r	.	8f\	-ta-	8a\	-ta-
.	.	.	.	8eny\	.	8g\	.
.	.	.	.	8f\	.	8a\	.
.	.	.	.	8g\	.	8b-y\	.
!	!	!	!	!	!	!LO:SIC:v:t=custos cc	!
2F\	Can-	4r	.	2a\	.	2cc\	.
.	.	4B-\	Can-	.	.	.	.
!	!	!	!	!	!	!LO:LB:g=original	!
=21-	=21-	=21-	=21-	=21-	=21-	=21-	=21-
8F\	-ta-	8A/	-ta-	2f\	-te	2cc\	-te
8E\	.	8G/	.	.	.	.	.
8F\	.	8A/	.	.	.	.	.
8G\	.	8B-\	.	.	.	.	.
2A\	.	2c\	.	4r	.	4r	.
!	!	!	!	!LO:SIC:v:t=custos f	!	!	!
.	.	.	.	4e\	Can-	4cc\	Can-
!	!	!	!	!LO:LB:g=original	!	!	!
4F\	-te	4c\	-te	8f\	-ta-	8a\	-ta-
.	.	.	.	8e\	.	8g\	.
4F\	Can-	4c\	Can-	8f\	.	8a\	.
.	.	.	.	8g\	.	8b-\	.
8F\	-ta-	8A/	-ta-	2a\	.	1cc\	.
8E\	.	8G/	.	.	.	.	.
8F\	.	8A/	.	.	.	.	.
!LO:SIC:v:t=custos A	!	!LO:SIC:v:t=custos c	!	!	!	!	!
8G\	.	8B-\	.	.	.	.	.
!LO:LB:g=original	!	!LO:LB:g=original	!	!	!	!	!
=22-	=22-	=22-	=22-	=22-	=22-	=22-	=22-
2A\	.	2c\	.	2e\	-te	.	.
2F\	-te	2c\	-te	4r	.	4a\	-te
.	.	.	.	4f\	fin	4a\	fin
1r	.	0r	.	4g\	che i	4b-\	che i
.	.	.	.	4.a\	cam-	4.cc\	cam-
.	.	.	.	8g\	-pi	8b-\	-pi
.	.	.	.	2f\	fi	2a\	fi
=23-	=23-	=23-	=23-	=23-	=23-	=23-	=23-
2F\	fin	.	.	.	.	.	.
.	.	.	.	4e\	rin-	4cc\	rin-
!	!	!	!	!	!	!LO:N:acc=#	!
2G\	che i	.	.	4.d\	-foſ-	4.bn\	-foſ-
.	.	.	.	8d\	-ca-	8b\	-ca-
2A\	cam-	4r	.	2c/	-no	2cc\	-no
.	.	4A/	fin	.	.	.	.
2G\	-pi	2B-\	che i	2r	.	2r	.
=24-	=24-	=24-	=24-	=24-	=24-	=24-	=24-
2.F\	fi	4.c\	cam-	1r	.	1r	.
.	.	8B-\	-pi	.	.	.	.
.	.	4A/	fi	.	.	.	.
4E\	rin-	4c\	rin-	.	.	.	.
!	!	!LO:N:acc=#	!	!	!	!	!
4.D/	-foſ-	4.Bn\	-foſ-	1r	.	1r	.
8D/	-ca-	8B\	-ca-	.	.	.	.
2C/	-no	2c\	-no	.	.	.	.
=25-	=25-	=25-	=25-	=25-	=25-	=25-	=25-
1r	.	1r	.	2r	.	2g/	Mon-
!	!	!	!	!	!	!LO:SIC:v:t=custos cc	!
.	.	.	.	2c/	Mon-	2cc\	-tan
!	!	!	!	!	!	!LO:LB:g=original	!
0r	.	0r	.	2f\	-tan	4r	.
.	.	.	.	.	.	4cc\	coſ-
.	.	.	.	4r	.	4.a\	-tui
!	!	!	!	!LO:SIC:v:t=custos d	!	!	!
.	.	.	.	4f\	co-	.	.
.	.	.	.	.	.	8cc\	che
!	!	!	!	!LO:LB:g=original	!	!	!
=26-	=26-	=26-	=26-	=26-	=26-	=26-	=26-
.	.	.	.	4.d\	-ſtui	4b-y\	me-
.	.	.	.	.	.	4a\	-co a
.	.	.	.	8f\	che	.	.
.	.	.	.	4e\	me-	4g/	can-
.	.	.	.	4d\	-co a-	4fny/	-tar
!LO:TX:t=P:problem: wpisana pauza graficznie nie wyświetla się	!	!	!	!	!	!	!
1r	.	1r	.	4c/	-cã(n)-	4.g/	pro-
.	.	.	.	4B-/	-tar	.	.
.	.	.	.	.	.	8g/	-ua-
.	.	.	.	4.c/	pro-	1g\	-ſi
.	.	.	.	8c/	-ua-	.	.
=27-	=27-	=27-	=27-	=27-	=27-	=27-	=27-
4C/	Guar-	2r	.	1c	-ſi	.	.
8C/	-da	.	.	.	.	.	.
8D/	le	.	.	.	.	.	.
4E\	cap-	4G/	Guar-	.	.	2r	.
4C/	-re	8G/	-da	.	.	.	.
.	.	8A/	le	.	.	.	.
4D/	d`un	4B-y\	cap-	1r	.	0r	.
4E\	paſ-	4G/	-re	.	.	.	.
4F\	-tor	4A/	d`un	.	.	.	.
!LO:SIC:v:t=custos A	!	!LO:SIC:v:t=custos c	!	!	!	!	!
4G\	er-	4B-\	pa-	.	.	.	.
!LO:LB:g=original	!	!LO:LB:g=original	!	!	!	!	!
=28-	=28-	=28-	=28-	=28-	=28-	=28-	=28-
4.A\	-ra-	4c\	-ſtor	2r	.	.	.
.	.	4c\	er-	.	.	.	.
8A\	-ti-	.	.	.	.	.	.
4.G\	-co	4.B-\	-ra-	4d\	Guar-	.	.
.	.	.	.	8d\	-da	.	.
16F\	.	8c\	-ti-	8e\	le	.	.
16E\	.	.	.	.	.	.	.
2D/	.	4.d\	-co	4f\	cap-	4a\	Guar-
.	.	.	.	4d\	-re	8a\	-da
.	.	16c\	.	.	.	8b-\	le
.	.	16B-\	.	.	.	.	.
2r	.	2A/	.	4e\	d`un	4cc\	cap-
.	.	.	.	4f\	paſ-	4a\	-re
=29-	=29-	=29-	=29-	=29-	=29-	=29-	=29-
1r	.	4G/	d`un	4g\	-tor	4b-\	d`un
.	.	4A/	paſ-	4e\	er-	4cc\	paſ-
.	.	4B-\	-tor	8d\	-ra-	4dd\	-tor
.	.	.	.	8e\	.	.	.
!	!	!	!	!	!	!LO:SIC:v:t=custos b	!
.	.	4A/	er-	2f\	.	4cc\	er-
!	!	!	!	!	!	!LO:LB:g=original	!
1r	.	4.G/	-ra-	.	.	4.b-\	-ra-
.	.	.	.	4e\	-ti-	.	.
.	.	8G/	-ti-	.	.	8b-\	-ti-
!	!	!	!	!LO:SIC:v:t=custos d	!	!	!
.	.	2F/	-co	2f\	-co	2a\	-co
!	!	!	!	!LO:LB:g=original	!	!	!
=30-	=30-	=30-	=30-	=30-	=30-	=30-	=30-
1.D	Mi-	2r	.	2r	.	2r	.
.	.	1A	Mi-	1d	Mi-	1f	Mi-
4AA/	-ſe-	4A/	-ſe-	4c#X/	-ſe-	4e/	-ſe-
4AA/	-ra	4A/	-ra	4c#/	-ra	4e/	-ra
=31-	=31-	=31-	=31-	=31-	=31-	=31-	=31-
1AA	man-	1A	man-	1c#yX	man-	1e	man-
2D/	-dra	2A/	-dra	2d\	-dra	2f#X/	-dra
4D/	ch`in	4A/	ch`in	4d\	ch`in	4f#/	ch`in
4G\	tal	4B-\	tal	4d\	tal	4g/	tal
=32-	=32-	=32-	=32-	=32-	=32-	=32-	=32-
!	!	!LO:SIC:v:t=custos c	!	!	!	!	!
1F	gui-	1c	gui-	1.f	gui-	1.a	gui-
!	!	!LO:LB:g=original	!	!	!	!	!
1C	-da	2c\	-da	.	.	.	.
.	.	1c\	tro-	2e\	-da	2g/	-da
=33-	=33-	=33-	=33-	=33-	=33-	=33-	=33-
1.GG	tro-	.	.	1.d	tro-	1.g	tro-
!	!	!LO:N:acc=#	!	!	!	!	!
.	.	4Bn\	.	.	.	.	.
.	.	4A/	.	.	.	.	.
!	!	!LO:N:acc=#	!	!	!	!	!
.	.	2.Bn\	.	.	.	.	.
2GG/	-ua-	.	.	2d\	ua-	2g/	ua-
.	.	4B\	ua-	.	.	.	.
=34-	=34-	=34-	=34-	=34-	=34-	=34-	=34-
00C	-ſi.	00c	-ſi.	00e	-ſi.	00g	-ſi.
==	==	==	==	==	==	==	==
*-	*-	*-	*-	*-	*-	*-	*-
!!!system-decoration: [(s1,s2,s3,s4)]
!!!ENC: Filip Voros
!!!END: 2022-06-29
!!!ENC: Natalia Wrzos
!!!END: 2022-07-13
